X:1
T:Rest If You Will
T:Charles Edward Pollock
T:Rest If You Will
T:Public Domain
T:Public Domain
T:Public Domain
C:Charles Edward Pollock
Z:Public Domain
%%score ( 1 2 ) ( 3 4 )
L:1/8
M:4/4
K:G
V:1 treble 
V:2 treble 
V:3 bass 
V:4 bass 
V:1
 (Bc) | [Gd]2 [Ge][Gd] [GB]2 [DG][DG] | [EA]2 [EG][CE] [B,D]3 [DG] | %3
w: 1.~O *|are you cling- ing to earth’s|fad- ing flow’rs, Tho’ fra-|
w: 2.~O *|are you dream- ing of hopes|that are frail, That die|
w: 3.~O *|are you slight- ing the voice|of the Lord, Re- fus-|
w: 4.~O *|are you wait- ing when time|flies a- pace? Take heed|
 [GB]2 [GB][GB] [Gd]2 [GB][DA] | [DG]2 [DA][GB] [FA]3 [Fd] | [Gd]2 [Ge][Gd] [GB]2 [DG][=FG] | %6
w: grant its blos- soms and love-|ly its bow’rs? The cold|breath of win- ter will sweep|
w: like the leaf- let when tossed|by the gale? The heart’s|wear- y long- ings the world|
w: ing to fol- low His life|giv- ing Word? No love|like the Sav- ior’s your lone|
w: that ye spurn not God’s mes-|sage of grace; O trust|not the plea- sures that charm|
 [EA]2 [EG][CE] [B,D]3 [DG] | [GB]2 [Gc][Gc] [GB][DA][DG]G | [EA]2 [DG][DF] [DG]4 || %9
w: them a- way, Then why|from your fa- ther- land, O why|you stay? * *|
w: can- not still, And yet|in the Sav- ior you may rest|you will. Why will|
w: hearts can fill, That love|is in- vit- ing you to rest|you will. * *|
w: to de- ceive, But come|to the Sav- ior and, re- pent-|be- lieve. * *|
"^Refrain" (G2 GG G2) GA | (G2 GG G2) [Gd][Gd] | (F2 FF F2) [FA][Fc] | (G2 GG G2) (Bc) | %13
w: ||||
w: you * * * stay? Je-|calls * * * you to-|Your * * * poor ach-|hearts * * * for *|
w: ||||
w: ||||
 [Gd]2 [Ge][Gd] [GB]3 G | [EA][EG][CE][CG] [B,D]3 [DG] | [GB]2 [Gc][Gc] [GB][DA][DG]G | %16
w: |||
w: long- ing still, And yet|His mer- cy you may rest|if you will. * * * *|
w: |||
w: |||
 [EA]2 [DG][DF] [DG]4 |] %17
w: |
w: |
w: |
w: |
V:2
 G2 | x8 | x8 | x8 | x8 | x8 | x8 | x7 G | x8 || B6 x2 | B6 x2 | d6 x2 | B6 G2 | x7 G | x8 | x7 G | %16
w: why|||||||will|||||||||
w: why|||||||if||sus|day,|ing|rest are|in|||
w: why|||||||if|||||||||
w: why|||||||ing,|||||||||
 x8 |] %17
w: |
w: |
w: |
w: |
V:3
 (G,A,) | [G,B,]2 [G,C][G,B,] [G,D]2 [G,B,][G,B,] | [C,C]2 [C,C][C,G,] [G,,G,]3 [G,B,] | %3
w: ~ *|~ ~ ~ ~ ~ ~|~ ~ ~ ~ ~|
 [G,D]2 [G,D][G,D] [G,B,]2 [G,D][G,C] | [G,B,]2 [F,D][G,D] [D,D]3 [D,C] | %5
w: ~ ~ ~ ~ ~ ~|~ ~ ~ ~ ~|
 [G,B,]2 [G,C][G,B,] [G,D]2 [G,B,][G,D] | [C,C]2 [C,C][C,G,] [G,,G,]3 [G,B,] | %7
w: ~ ~ ~ ~ ~ ~|~ ~ ~ ~ ~|
 [G,D]2 [G,E][G,E] [G,D][G,C][G,B,][B,,D] | [C,C]2 [D,B,][D,A,] [G,,B,]4 || G,2 G,G, G,2 B,C | %10
w: ~ ~ ~ ~ ~ ~ ~|~ ~ ~ Why|will you stay? ~ ~ Why|
 G,2 G,G, G,2 [G,B,][G,B,] | D,2 D,D, D,2 [D,D][D,D] | G,2 G,G, G,2 [G,D]2 | %13
w: you stay? Je- sus calls you|day, Je- sus calls you to-||
 [G,B,]2 [G,C][G,B,] [G,D]3 [B,,D] | [C,C][C,C][C,G,][E,G,] G,3 [G,B,] | %15
w: ||
 [G,D]2 [G,E][G,E] [G,D][G,C][G,B,][B,,D] | [C,C]2 [D,B,][D,A,] [G,,B,]4 |] %17
w: ||
V:4
 G,2 | x8 | x8 | x8 | x8 | x8 | x8 | x8 | x8 || D6 x2 | D6 x2 | A,6 x2 | D6 x2 | x8 | x4 G,3 x | %15
w: ~|||||||||will|to-|day,||||
 x8 | x8 |] %17
w: ||

